sanis/img/main/benefits/3.svg

<svg width="47" height="68" viewBox="0 0 47 68" fill="none" xmlns="http://www.w3.org/2000/svg">
<path d="M29.2273 2.08691L5.70996 41.6558L24.5238 36.803L19.8204 61.6642L43.3377 22.0953L24.5238 26.9481L29.2273 2.08691Z" fill="#F9C859"/>
<path fill-rule="evenodd" clip-rule="evenodd" d="M29.5849 1L29.0581 3.78457L24.501 27.872L42.5523 23.2159L43.7266 22.913L43.107 23.9555L19.5896 63.5244L18.1417 65.9606L18.6685 63.176L23.2256 39.0886L5.1743 43.7447L4 44.0476L4.6196 43.0051L28.137 3.43617L29.5849 1ZM6.09883 42.4735L23.7384 37.9236L24.501 37.7269L24.3546 38.5007L20.1779 60.5773L41.6278 24.4871L23.9882 29.037L23.2256 29.2337L23.372 28.4599L27.5487 6.38325L6.09883 42.4735Z" fill="#7C4DFF"/>
<path d="M29.0581 3.78457L30.5319 4.06341V4.06341L29.0581 3.78457ZM29.5849 1L31.0587 1.27884L28.2954 0.23363L29.5849 1ZM24.501 27.872L23.0271 27.5932L22.5879 29.9145L24.8756 29.3245L24.501 27.872ZM42.5523 23.2159L42.927 24.6684L42.5523 23.2159ZM43.7266 22.913L45.0161 23.6794L46.8749 20.5519L43.352 21.4605L43.7266 22.913ZM43.107 23.9555L41.8176 23.1891H41.8176L43.107 23.9555ZM19.5896 63.5244L18.3002 62.758H18.3002L19.5896 63.5244ZM18.1417 65.9606L16.6679 65.6817L19.4312 66.7269L18.1417 65.9606ZM18.6685 63.176L17.1947 62.8972L18.6685 63.176ZM23.2256 39.0886L24.6995 39.3674L25.1387 37.046L22.851 37.6361L23.2256 39.0886ZM5.1743 43.7447L4.79966 42.2922L5.1743 43.7447ZM4 44.0476L2.71055 43.2812L0.851751 46.4087L4.37464 45.5L4 44.0476ZM4.6196 43.0051L3.33015 42.2387L3.33015 42.2387L4.6196 43.0051ZM28.137 3.43617L29.4264 4.20254L28.137 3.43617ZM23.7384 37.9236L23.3638 36.4711H23.3638L23.7384 37.9236ZM6.09883 42.4735L4.80939 41.7071L2.95058 44.8346L6.47348 43.9259L6.09883 42.4735ZM24.501 37.7269L25.9748 38.0057L26.414 35.6844L24.1263 36.2744L24.501 37.7269ZM24.3546 38.5007L25.8284 38.7795L24.3546 38.5007ZM20.1779 60.5773L18.7041 60.2985L21.4674 61.3437L20.1779 60.5773ZM41.6278 24.4871L42.9172 25.2535L44.776 22.126L41.2531 23.0346L41.6278 24.4871ZM23.9882 29.037L24.3628 30.4895L23.9882 29.037ZM23.2256 29.2337L21.7518 28.9548L21.3126 31.2762L23.6003 30.6861L23.2256 29.2337ZM23.372 28.4599L24.8459 28.7387L23.372 28.4599ZM27.5487 6.38325L29.0225 6.66209L26.2592 5.61688L27.5487 6.38325ZM30.5319 4.06341L31.0587 1.27884L28.111 0.721163L27.5842 3.50574L30.5319 4.06341ZM25.9748 28.1508L30.5319 4.06341L27.5842 3.50574L23.0271 27.5932L25.9748 28.1508ZM42.1777 21.7634L24.1263 26.4195L24.8756 29.3245L42.927 24.6684L42.1777 21.7634ZM43.352 21.4605L42.1777 21.7634L42.927 24.6684L44.1013 24.3655L43.352 21.4605ZM44.3965 24.7219L45.0161 23.6794L42.4372 22.1466L41.8176 23.1891L44.3965 24.7219ZM20.8791 64.2908L44.3965 24.7219L41.8176 23.1891L18.3002 62.758L20.8791 64.2908ZM19.4312 66.7269L20.8791 64.2908L18.3002 62.758L16.8523 65.1942L19.4312 66.7269ZM17.1947 62.8972L16.6679 65.6817L19.6156 66.2394L20.1424 63.4548L17.1947 62.8972ZM21.7518 38.8097L17.1947 62.8972L20.1424 63.4548L24.6995 39.3674L21.7518 38.8097ZM5.54894 45.1971L23.6003 40.541L22.851 37.6361L4.79966 42.2922L5.54894 45.1971ZM4.37464 45.5L5.54894 45.1971L4.79966 42.2922L3.62536 42.5951L4.37464 45.5ZM3.33015 42.2387L2.71055 43.2812L5.28945 44.8139L5.90905 43.7714L3.33015 42.2387ZM26.8475 2.6698L3.33015 42.2387L5.90905 43.7714L29.4264 4.20254L26.8475 2.6698ZM28.2954 0.23363L26.8475 2.6698L29.4264 4.20254L30.8743 1.76637L28.2954 0.23363ZM23.3638 36.4711L5.72419 41.021L6.47348 43.9259L24.1131 39.376L23.3638 36.4711ZM24.1263 36.2744L23.3638 36.4711L24.1131 39.376L24.8756 39.1794L24.1263 36.2744ZM25.8284 38.7795L25.9748 38.0057L23.0271 37.4481L22.8807 38.2218L25.8284 38.7795ZM21.6518 60.8562L25.8284 38.7795L22.8807 38.2218L18.7041 60.2985L21.6518 60.8562ZM40.3383 23.7207L18.8885 59.811L21.4674 61.3437L42.9172 25.2535L40.3383 23.7207ZM24.3628 30.4895L42.0024 25.9396L41.2531 23.0346L23.6135 27.5845L24.3628 30.4895ZM23.6003 30.6861L24.3628 30.4895L23.6135 27.5845L22.851 27.7812L23.6003 30.6861ZM21.8982 28.1811L21.7518 28.9548L24.6995 29.5125L24.8459 28.7387L21.8982 28.1811ZM26.0748 6.10441L21.8982 28.1811L24.8459 28.7387L29.0225 6.66209L26.0748 6.10441ZM7.38828 43.2398L28.8381 7.14962L26.2592 5.61688L4.80939 41.7071L7.38828 43.2398Z" fill="black"/>
</svg>

<svg width="47" height="68" fill="none" xmlns="http://www.w3.org/2000/svg"><path d="M29.227 2.087L5.71 41.656l18.814-4.853-4.704 24.861 23.518-39.569-18.814 4.853 4.703-24.861z" fill="#F9C859"/><path fill-rule="evenodd" clip-rule="evenodd" d="M29.585 1l-.527 2.785-4.557 24.087 18.051-4.656 1.175-.303-.62 1.043L19.59 63.523l-1.448 2.437.527-2.785 4.557-24.087-18.052 4.656L4 44.048l.62-1.043L28.137 3.436 29.585 1zM6.099 42.474l17.64-4.55.762-.197-.146.774-4.177 22.076 21.45-36.09-17.64 4.55-.762.197.146-.774 4.177-22.077-21.45 36.09z" fill="#7C4DFF"/><path d="M29.058 3.785l1.474.278-1.474-.278zM29.585 1l1.474.279L28.295.234l1.29.766zM24.5 27.872l-1.474-.279-.44 2.322 2.289-.59-.375-1.453zm18.051-4.656l.375 1.452-.375-1.452zm1.175-.303l1.29.766 1.858-3.127-3.523.909.375 1.452zm-.62 1.043l-1.29-.767 1.29.767zM19.59 63.523l-1.29-.766 1.29.766zm-1.448 2.437l-1.474-.28 2.763 1.046-1.29-.766zm.527-2.785l-1.474-.279 1.474.279zm4.557-24.087l1.474.278.439-2.321-2.288.59.375 1.453zM5.174 43.745L4.8 42.292l.374 1.453zM4 44.048l-1.29-.767L.853 46.41l3.523-.909L4 44.048zm.62-1.043l-1.29-.766 1.29.766zM28.137 3.436l1.29.767-1.29-.767zm-4.399 34.488l-.374-1.453.374 1.453zm-17.64 4.55l-1.289-.767-1.858 3.128 3.522-.91-.374-1.451zm18.403-4.747l1.474.279.439-2.322-2.288.59.375 1.453zm-.146.774l1.473.279-1.473-.28zm-4.177 22.076l-1.474-.279 2.763 1.046-1.29-.767zm21.45-36.09l1.29.767 1.858-3.128-3.523.909.375 1.452zm-17.64 4.55l.375 1.453-.375-1.453zm-.762.197l-1.474-.28-.44 2.322 2.288-.59-.374-1.452zm.146-.774l1.474.279-1.474-.28zm4.177-22.077l1.474.28-2.764-1.046 1.29.766zm2.983-2.32l.527-2.784L28.11.72l-.527 2.785 2.948.557zm-4.557 24.088l4.557-24.088-2.948-.557-4.557 24.087 2.948.558zm16.203-6.388L24.126 26.42l.75 2.905 18.051-4.656-.75-2.905zm1.174-.303l-1.174.303.749 2.905 1.174-.302-.749-2.905zm1.045 3.262l.62-1.043-2.58-1.532-.62 1.042 2.58 1.533zM20.879 64.29l23.518-39.57-2.58-1.532L18.3 62.758l2.58 1.533zm-1.448 2.436l1.448-2.436-2.579-1.533-1.448 2.436 2.58 1.533zm-2.236-3.83l-.527 2.785 2.948.557.526-2.784-2.947-.558zm4.557-24.087l-4.557 24.087 2.947.558L24.7 39.367l-2.948-.557zM5.549 45.197L23.6 40.541l-.749-2.905L4.8 42.292l.749 2.905zm-1.174.303l1.174-.303-.75-2.905-1.174.303.75 2.905zM3.33 42.239l-.62 1.042 2.58 1.533.619-1.043L3.33 42.24zm23.518-39.57L3.33 42.24l2.58 1.53L29.426 4.203 26.848 2.67zM28.294.235L26.847 2.67l2.58 1.533 1.447-2.437L28.295.234zm-4.93 36.235l-17.64 4.55.75 2.905 17.64-4.55-.75-2.905zm.762-.197l-.762.197.75 2.905.762-.197-.75-2.905zm1.702 2.505l.147-.773-2.948-.558-.146.774 2.947.557zm-4.176 22.077l4.176-22.077-2.947-.557-4.177 22.076 2.948.558zM40.338 23.72l-21.45 36.09 2.58 1.533 21.45-36.09-2.58-1.533zm-15.975 6.768l17.64-4.55-.75-2.904-17.64 4.55.75 2.904zm-.763.197l.763-.197-.75-2.905-.762.197.75 2.905zm-1.702-2.505l-.146.774 2.948.558.146-.774-2.948-.558zm4.177-22.077L21.898 28.18l2.948.558 4.177-22.077-2.948-.558zM7.388 43.24l21.45-36.09-2.579-1.533-21.45 36.09 2.58 1.533z" fill="#000"/></svg>
